X:0980
T:A Irish Jig.
M:6/8
L:1/8
Q:3/8=112
I: :: :|
Z:Jack Campin * www.campin.me.uk * 2009
K:B Minor
A|A>FA A>FA|A>FA A2d|B>dB B>AB|d>ef f2e|e>fa b>d'b|afe d>ef|f>ba f>ef|d>BB B2:|
a|aba  afa |bd'b b2a|afa  bag |f2e  d2b|d'ba baf  |afe d>ef|fba  fef |d>BB B2:|

